src/assets/svg/icons/fa/nuevos/classic/light/mountain-sun classic light.svg

<svg xmlns="http://www.w3.org/2000/svg" viewBox="0 0 640 512"><path d="M480 80C480 35.82 515.8 0 560 0C604.2 0 640 35.82 640 80C640 124.2 604.2 160 560 160C515.8 160 480 124.2 480 80zM560 128C586.5 128 608 106.5 608 80C608 53.49 586.5 32 560 32C533.5 32 512 53.49 512 80C512 106.5 533.5 128 560 128zM55.91 512C25.03 512 0 486.1 0 456.1C0 445.6 2.964 435.3 8.551 426.4L225.3 81.01C231.9 70.42 243.5 64 256 64C268.5 64 280.1 70.42 286.8 81.01L412.7 281.7L460.9 202.7C464.1 196.1 472.2 192 480 192C487.8 192 495 196.1 499.1 202.7L631.1 419.1C636.9 428.6 640 439.7 640 450.9C640 484.6 612.6 512 578.9 512L55.91 512zM431.7 312L503.4 426.4C509 435.3 512 445.6 512 456.1C512 464.6 510.1 472.8 506.6 480H578.9C594.1 480 608 466.1 608 450.9C608 445.5 606.5 440.3 603.7 435.7L480 232.9L431.7 312zM480 456.1C480 451.6 478.7 447.2 476.3 443.4L259.6 98.02C258.9 96.76 257.5 96 256 96C254.5 96 253.1 96.76 252.4 98.02L35.66 443.4C33.27 447.2 32 451.6 32 456.1C32 469.3 42.71 480 55.91 480H456.1C469.3 480 480 469.3 480 456.1H480z"/></svg>

<svg xmlns="http://www.w3.org/2000/svg" viewBox="0 0 640 512"><!--! Font Awesome Pro 6.4.0 by @fontawesome - https://fontawesome.com License - https://fontawesome.com/license (Commercial License) Copyright 2023 Fonticons, Inc. --><path d="M608 80a48 48 0 1 0 -96 0 48 48 0 1 0 96 0zM480 80a80 80 0 1 1 160 0A80 80 0 1 1 480 80zM456.1 480c13.2 0 23.9-10.7 23.9-23.9c0-4.5-1.3-8.9-3.7-12.7L259.6 98c-.8-1.3-2.2-2-3.6-2s-2.9 .8-3.6 2L35.7 443.4c-2.4 3.8-3.7 8.2-3.7 12.7C32 469.3 42.7 480 55.9 480H456.1zM55.9 512C25 512 0 487 0 456.1c0-10.5 3-20.8 8.6-29.7L225.2 81c6.6-10.6 18.3-17 30.8-17s24.1 6.4 30.8 17l126 200.7 48.2-79C465 196.1 472.2 192 480 192s15 4.1 19.1 10.7l132 216.3c5.8 9.6 8.9 20.6 8.9 31.8c0 33.8-27.4 61.1-61.1 61.1H456.1 55.9zm447.5-85.6c5.6 8.9 8.6 19.2 8.6 29.7c0 8.6-1.9 16.7-5.4 23.9h72.2c16.1 0 29.1-13 29.1-29.1c0-5.3-1.5-10.6-4.3-15.2L480 232.9 431.7 312l71.7 114.3z"/></svg>
